; generated by PrusaSlicer 2.2.0+linux-x64 on 2020-08-01 at 04:50:27 UTC

; 

; external perimeters extrusion width = 0.60mm
; perimeters extrusion width = 0.50mm
; infill extrusion width = 0.50mm
; solid infill extrusion width = 0.50mm
; top infill extrusion width = 0.45mm
; first layer extrusion width = 0.42mm

M73 P0 R333
M73 Q0 S336
M201 X1000 Y1000 Z200 E5000 ; sets maximum accelerations, mm/sec^2
M203 X200 Y200 Z12 E120 ; sets maximum feedrates, mm/sec
M204 P1250 R1250 T1250 ; sets acceleration (P, T) and retract acceleration (R), mm/sec^2
M205 X8.00 Y8.00 Z0.40 E4.50 ; sets the jerk limits, mm/sec
M205 S0 T0 ; sets the minimum extruding and travel feed rate, mm/sec
M107
M862.3 P "MK3S" ; printer model check
M862.1 P0.4 ; nozzle diameter check
M115 U3.9.0 ; tell printer latest fw version
G90 ; use absolute coordinates
M83 ; extruder relative mode
M104 S240 ; set extruder temp
M140 S85 ; set bed temp
M190 S85 ; wait for bed temp
M109 S240 ; wait for extruder temp
G28 W ; home all without mesh bed level
G80 ; mesh bed leveling
G1 Y-3.0 F1000.0 ; go outside print area
G92 E0.0
G1 X60.0 E9.0 F1000.0 ; intro line
M73 Q0 S336
M73 P0 R333
G1 X100.0 E12.5 F1000.0 ; intro line
G92 E0.0
M221 S95
G21 ; set units to millimeters
G90 ; use absolute coordinates
M83 ; use relative distances for extrusion
M900 K0.12 ; Filament gcode LA 1.5
M900 K45 ; Filament gcode LA 1.0
;BEFORE_LAYER_CHANGE
G92 E0.0
;0.2


G1 E-1.40000 F2100.00000
G1 Z0.200 F10800.000
;AFTER_LAYER_CHANGE
;0.2
G1 Z0.400
G1 X65.124 Y112.256
G1 Z0.200
G1 E1.40000 F2100.00000
M204 S1000
G1 F1200.000
G1 X64.936 Y111.490 E0.02473
G1 X64.966 Y104.965 E0.20458
G1 X67.918 Y87.263 E0.56270
G1 X69.108 Y82.202 E0.16302
G1 X71.171 Y77.158 E0.17087
G1 X73.892 Y72.665 E0.16469
G1 X77.271 Y68.649 E0.16457
G1 X95.541 Y50.144 E0.81532
G1 X99.528 Y46.702 E0.16516
G1 X103.920 Y43.963 E0.16230
G1 X109.153 Y41.752 E0.17811
G1 X114.209 Y40.511 E0.16325
G1 X119.397 Y40.062 E0.16326
G1 X133.946 Y40.024 E0.45617
G1 X134.519 Y40.095 E0.01811
G1 X135.055 Y40.300 E0.01799
G1 X140.352 Y43.324 E0.19126
G1 X140.770 Y43.634 E0.01633
G1 X185.095 Y87.547 E1.95633
G1 X185.532 Y88.208 E0.02484
G1 X185.728 Y88.980 E0.02496
G1 X185.738 Y95.520 E0.20505
G1 X182.737 Y113.936 E0.58503
G1 X181.511 Y119.009 E0.16365
G1 X179.423 Y124.027 E0.17040
G1 X176.666 Y128.515 E0.16517
G1 X173.262 Y132.510 E0.16457
G1 X154.881 Y150.893 E0.81509
G1 X150.870 Y154.313 E0.16528
G1 X146.457 Y157.026 E0.16242
G1 X141.203 Y159.206 E0.17835
G1 X136.146 Y160.413 E0.16302
G1 X130.952 Y160.829 E0.16338
G1 X116.077 Y160.749 E0.46640
G1 X115.260 Y160.469 E0.02708
G1 X110.021 Y157.434 E0.18983
G1 X109.600 Y157.115 E0.01657
G1 X65.555 Y112.921 E1.95633
G1 X65.157 Y112.306 E0.02296
G1 F8640.000
G1 X64.936 Y111.490 E-0.19523
G1 X64.958 Y106.576 E-1.13477
G1 E-0.07000 F2100.00000
G1 Z0.400 F10800.000
G1 X125.594 Y103.243
G1 Z0.200
G1 E1.40000 F2100.00000
G1 F1200.000
G1 X179.548 Y103.243 E1.69167
G1 X179.636 Y103.613 E0.01192
G1 X180.018 Y108.456 E0.15233
G1 X179.636 Y113.299 E0.15233
G1 X178.502 Y118.023 E0.15233
G1 X176.643 Y122.512 E0.15233
G1 X174.105 Y126.654 E0.15233
G1 X170.929 Y130.372 E0.15330
G1 X152.723 Y148.578 E0.80730
G1 X149.005 Y151.754 E0.15330
G1 X144.863 Y154.292 E0.15233
G1 X140.374 Y156.151 E0.15233
G1 X135.650 Y157.285 E0.15233
G1 X130.807 Y157.666 E0.15233
G1 X125.964 Y157.285 E0.15233
G1 X125.594 Y157.197 E0.01192
G1 X125.594 Y103.303 E1.68979
G1 X125.217 Y102.866 F10800.000
G1 F1200.000
G1 X179.845 Y102.866 E1.71282
G1 X180.010 Y103.554 E0.02217
G1 X180.396 Y108.456 E0.15419
G1 X180.010 Y113.358 E0.15419
G1 X178.862 Y118.140 E0.15419
G1 X176.980 Y122.684 E0.15419
G1 X174.411 Y126.876 E0.15419
G1 X171.206 Y130.628 E0.15469
G1 X152.979 Y148.855 E0.80823
G1 X149.227 Y152.060 E0.15469
G1 X145.035 Y154.629 E0.15419
G1 X140.491 Y156.511 E0.15419
G1 X135.709 Y157.659 E0.15419
G1 X130.807 Y158.045 E0.15419
G1 X125.905 Y157.659 E0.15419
G1 X125.217 Y157.494 E0.02217
G1 X125.217 Y102.926 E1.71094
G1 X125.564 Y103.065 F10800.000
G1 F8640.000
G1 X130.977 Y102.920 E-1.33000
G1 E-0.07000 F2100.00000
G1 Z0.400 F10800.000
G1 X179.572 Y104.239
G1 Z0.200
G1 E1.40000 F2100.00000
G1 F1200.000
G1 X178.859 Y103.526 E0.03174
G1 X178.324 Y103.526 E0.01684
G1 X179.433 Y104.635 E0.04936
G1 X179.479 Y105.216 E0.01833
G1 X177.789 Y103.526 E0.07521
G1 X177.254 Y103.526 E0.01684
G1 X179.525 Y105.797 E0.10106
G1 X179.570 Y106.378 E0.01833
G1 X176.718 Y103.526 E0.12691
G1 X176.183 Y103.526 E0.01684
G1 X179.616 Y106.959 E0.15276
G1 X179.662 Y107.540 E0.01833
G1 X175.648 Y103.526 E0.17861
G1 X175.113 Y103.526 E0.01684
G1 X179.707 Y108.121 E0.20446
G1 X179.734 Y108.456 E0.01059
G1 X179.717 Y108.666 E0.00662
G1 X174.578 Y103.526 E0.22872
G1 X174.042 Y103.526 E0.01684
G1 X179.678 Y109.162 E0.25079
G1 X179.639 Y109.658 E0.01566
G1 X173.507 Y103.526 E0.27287
G1 X172.972 Y103.526 E0.01684
G1 X179.600 Y110.154 E0.29495
G1 X179.561 Y110.650 E0.01566
G1 X172.437 Y103.526 E0.31703
G1 X171.902 Y103.526 E0.01684
G1 X179.522 Y111.146 E0.33910
G1 X179.483 Y111.642 E0.01566
G1 X171.367 Y103.526 E0.36118
G1 X170.831 Y103.526 E0.01684
G1 X179.444 Y112.138 E0.38326
G1 X179.405 Y112.635 E0.01566
G1 X170.296 Y103.526 E0.40534
G1 X169.761 Y103.526 E0.01684
G1 X179.366 Y113.131 E0.42741
G1 X179.356 Y113.255 E0.00392
G1 X179.278 Y113.578 E0.01047
G1 X169.226 Y103.526 E0.44734
G1 X168.691 Y103.526 E0.01684
G1 X179.175 Y114.010 E0.46654
G1 X179.071 Y114.442 E0.01397
G1 X168.156 Y103.526 E0.48575
G1 X167.620 Y103.526 E0.01684
G1 X178.968 Y114.873 E0.50495
G1 X178.864 Y115.305 E0.01397
G1 X167.085 Y103.526 E0.52415
G1 X166.550 Y103.526 E0.01684
G1 X178.760 Y115.736 E0.54336
G1 X178.657 Y116.168 E0.01397
G1 X166.015 Y103.526 E0.56256
G1 X165.480 Y103.526 E0.01684
G1 X178.553 Y116.599 E0.58177
G1 X178.450 Y117.031 E0.01397
G1 X164.945 Y103.526 E0.60097
G1 X164.409 Y103.526 E0.01684
G1 X178.346 Y117.462 E0.62018
G1 X178.242 Y117.894 E0.01397
M73 Q0 S335
G1 X163.874 Y103.526 E0.63938
M73 P0 R332
G1 X163.339 Y103.526 E0.01684
G1 X178.091 Y118.278 E0.65645
G1 X177.934 Y118.656 E0.01289
G1 X162.804 Y103.526 E0.67329
G1 X162.269 Y103.526 E0.01684
G1 X177.777 Y119.034 E0.69013
G1 X177.621 Y119.413 E0.01289
G1 X161.734 Y103.526 E0.70697
G1 X161.198 Y103.526 E0.01684
G1 X177.464 Y119.791 E0.72381
G1 X177.307 Y120.170 E0.01289
G1 X160.663 Y103.526 E0.74065
G1 X160.128 Y103.526 E0.01684
G1 X177.150 Y120.548 E0.75749
G1 X176.994 Y120.927 E0.01289
G1 X159.593 Y103.526 E0.77433
G1 X159.058 Y103.526 E0.01684
G1 X176.837 Y121.305 E0.79117
G1 X176.680 Y121.683 E0.01289
G1 X158.522 Y103.526 E0.80801
G1 X157.987 Y103.526 E0.01684
G1 X176.523 Y122.062 E0.82485
G1 X176.360 Y122.433 E0.01277
G1 X157.452 Y103.526 E0.84137
G1 X156.917 Y103.526 E0.01684
G1 X176.156 Y122.765 E0.85614
G1 X175.953 Y123.097 E0.01225
G1 X156.382 Y103.526 E0.87091
G1 X155.847 Y103.526 E0.01684
G1 X175.749 Y123.429 E0.88567
G1 X175.546 Y123.761 E0.01225
G1 X155.311 Y103.526 E0.90044
G1 X154.776 Y103.526 E0.01684
G1 X175.343 Y124.092 E0.91521
G1 X175.139 Y124.424 E0.01225
G1 X154.241 Y103.526 E0.92997
G1 X153.706 Y103.526 E0.01684
G1 X174.936 Y124.756 E0.94474
G1 X174.733 Y125.088 E0.01225
G1 X153.171 Y103.526 E0.95950
G1 X152.636 Y103.526 E0.01684
G1 X174.529 Y125.420 E0.97427
G1 X174.326 Y125.752 E0.01225
G1 X152.100 Y103.526 E0.98904
G1 X151.565 Y103.526 E0.01684
G1 X174.123 Y126.083 E1.00380
G1 X173.919 Y126.415 E0.01225
G1 X151.030 Y103.526 E1.01857
G1 X150.495 Y103.526 E0.01684
G1 X173.682 Y126.713 E1.03183
G1 X173.436 Y127.002 E0.01194
G1 X149.960 Y103.526 E1.04468
G1 X149.425 Y103.526 E0.01684
G1 X173.189 Y127.291 E1.05752
G1 X172.943 Y127.579 E0.01194
G1 X148.889 Y103.526 E1.07036
G1 X148.354 Y103.526 E0.01684
G1 X172.696 Y127.868 E1.08321
G1 X172.450 Y128.156 E0.01194
G1 X147.819 Y103.526 E1.09605
G1 X147.284 Y103.526 E0.01684
G1 X172.203 Y128.445 E1.10890
G1 X171.957 Y128.734 E0.01194
G1 X146.749 Y103.526 E1.12174
G1 X146.214 Y103.526 E0.01684
G1 X171.710 Y129.022 E1.13459
G1 X171.463 Y129.311 E0.01194
G1 X145.678 Y103.526 E1.14743
G1 X145.143 Y103.526 E0.01684
G1 X171.217 Y129.600 E1.16028
G1 X170.970 Y129.888 E0.01194
G1 X144.608 Y103.526 E1.17312
G1 X144.073 Y103.526 E0.01684
G1 X170.724 Y130.177 E1.18597
G1 X170.456 Y130.445 E0.01191
G1 X143.538 Y103.526 E1.19788
G1 X143.002 Y103.526 E0.01684
G1 X170.189 Y130.712 E1.20979
M73 Q0 S334
M73 P0 R331
G1 X169.921 Y130.980 E0.01191
G1 X142.467 Y103.526 E1.22170
G1 X141.932 Y103.526 E0.01684
G1 X169.654 Y131.247 E1.23360
G1 X169.386 Y131.515 E0.01191
G1 X141.397 Y103.526 E1.24551
G1 X140.862 Y103.526 E0.01684
G1 X169.119 Y131.783 E1.25742
G1 X168.851 Y132.050 E0.01191
G1 X140.327 Y103.526 E1.26933
G1 X139.791 Y103.526 E0.01684
G1 X168.583 Y132.318 E1.28123
G1 X168.316 Y132.585 E0.01191
G1 X139.256 Y103.526 E1.29314
G1 X138.721 Y103.526 E0.01684
G1 X168.048 Y132.853 E1.30505
G1 X167.781 Y133.121 E0.01191
G1 X138.186 Y103.526 E1.31696
G1 X137.651 Y103.526 E0.01684
G1 X167.513 Y133.388 E1.32886
G1 X167.245 Y133.656 E0.01191
G1 X137.116 Y103.526 E1.34077
G1 X136.580 Y103.526 E0.01684
G1 X166.978 Y133.923 E1.35268
G1 X166.710 Y134.191 E0.01191
G1 X136.045 Y103.526 E1.36459
G1 X135.510 Y103.526 E0.01684
G1 X166.443 Y134.459 E1.37649
G1 X166.175 Y134.726 E0.01191
G1 X134.975 Y103.526 E1.38840
G1 X134.440 Y103.526 E0.01684
G1 X165.908 Y134.994 E1.40031
G1 X165.640 Y135.261 E0.01191
G1 X133.905 Y103.526 E1.41222
G1 X133.369 Y103.526 E0.01684
G1 X165.372 Y135.529 E1.42412
G1 X165.105 Y135.796 E0.01191
G1 X132.834 Y103.526 E1.43603
G1 X132.299 Y103.526 E0.01684
G1 X164.837 Y136.064 E1.44794
G1 X164.570 Y136.332 E0.01191
G1 X131.764 Y103.526 E1.45985
G1 X131.229 Y103.526 E0.01684
G1 X164.302 Y136.599 E1.47175
G1 X164.034 Y136.867 E0.01191
G1 X130.694 Y103.526 E1.48366
G1 X130.158 Y103.526 E0.01684
G1 X163.767 Y137.134 E1.49557
G1 X163.499 Y137.402 E0.01191
G1 X129.623 Y103.526 E1.50748
G1 X129.088 Y103.526 E0.01684
G1 X163.232 Y137.670 E1.51939
G1 X162.964 Y137.937 E0.01191
G1 X128.553 Y103.526 E1.53129
G1 X128.018 Y103.526 E0.01684
G1 X162.696 Y138.205 E1.54320
M73 Q0 S333
M73 P0 R330
G1 X162.429 Y138.472 E0.01191
G1 X127.482 Y103.526 E1.55511
G1 X126.947 Y103.526 E0.01684
G1 X162.161 Y138.740 E1.56702
G1 X161.894 Y139.007 E0.01191
G1 X126.412 Y103.526 E1.57892
G1 X125.877 Y103.526 E0.01684
G1 X161.626 Y139.275 E1.59083
G1 X161.359 Y139.543 E0.01191
G1 X125.877 Y104.061 E1.57892
G1 X125.877 Y104.596 E0.01684
G1 X161.091 Y139.810 E1.56702
G1 X160.823 Y140.078 E0.01191
G1 X125.877 Y105.131 E1.55511
G1 X125.877 Y105.667 E0.01684
G1 X160.556 Y140.345 E1.54320
G1 X160.288 Y140.613 E0.01191
G1 X125.877 Y106.202 E1.53129
G1 X125.877 Y106.737 E0.01684
G1 X160.021 Y140.881 E1.51939
G1 X159.753 Y141.148 E0.01191
G1 X125.877 Y107.272 E1.50748
G1 X125.877 Y107.807 E0.01684
G1 X159.485 Y141.416 E1.49557
G1 X159.218 Y141.683 E0.01191
G1 X125.877 Y108.342 E1.48366
G1 X125.877 Y108.878 E0.01684
G1 X158.950 Y141.951 E1.47176
G1 X158.683 Y142.219 E0.01191
G1 X125.877 Y109.413 E1.45985
G1 X125.877 Y109.948 E0.01684
G1 X158.415 Y142.486 E1.44794
G1 X158.148 Y142.754 E0.01191
G1 X125.877 Y110.483 E1.43603
G1 X125.877 Y111.018 E0.01684
G1 X157.880 Y143.021 E1.42413
G1 X157.612 Y143.289 E0.01191
G1 X125.877 Y111.553 E1.41222
G1 X125.877 Y112.089 E0.01684
G1 X157.345 Y143.556 E1.40031
G1 X157.077 Y143.824 E0.01191
G1 X125.877 Y112.624 E1.38840
G1 X125.877 Y113.159 E0.01684
G1 X156.810 Y144.092 E1.37650
G1 X156.542 Y144.359 E0.01191
G1 X125.877 Y113.694 E1.36459
G1 X125.877 Y114.229 E0.01684
G1 X156.274 Y144.627 E1.35268
G1 X156.007 Y144.894 E0.01191
G1 X125.877 Y114.764 E1.34077
G1 X125.877 Y115.300 E0.01684
G1 X155.739 Y145.162 E1.32887
M73 Q1 S332
M73 P1 R329
G1 X155.472 Y145.430 E0.01191
G1 X125.877 Y115.835 E1.31696
G1 X125.877 Y116.370 E0.01684
G1 X155.204 Y145.697 E1.30505
G1 X154.936 Y145.965 E0.01191
G1 X125.877 Y116.905 E1.29314
G1 X125.877 Y117.440 E0.01684
G1 X154.669 Y146.232 E1.28124
G1 X154.401 Y146.500 E0.01191
G1 X125.877 Y117.975 E1.26933
G1 X125.877 Y118.511 E0.01684
G1 X154.134 Y146.767 E1.25742
G1 X153.866 Y147.035 E0.01191
G1 X125.877 Y119.046 E1.24551
G1 X125.877 Y119.581 E0.01684
G1 X153.599 Y147.303 E1.23361
G1 X153.331 Y147.570 E0.01191
G1 X125.877 Y120.116 E1.22170
G1 X125.877 Y120.651 E0.01684
G1 X153.063 Y147.838 E1.20979
G1 X152.796 Y148.105 E0.01191
G1 X125.877 Y121.187 E1.19788
G1 X125.877 Y121.722 E0.01684
G1 X152.528 Y148.373 E1.18597
G1 X152.239 Y148.619 E0.01194
G1 X125.877 Y122.257 E1.17312
G1 X125.877 Y122.792 E0.01684
G1 X151.951 Y148.866 E1.16028
G1 X151.662 Y149.112 E0.01194
G1 X125.877 Y123.327 E1.14743
G1 X125.877 Y123.862 E0.01684
G1 X151.373 Y149.359 E1.13459
G1 X151.085 Y149.605 E0.01194
G1 X125.877 Y124.398 E1.12174
G1 X125.877 Y124.933 E0.01684
G1 X150.796 Y149.852 E1.10890
G1 X150.508 Y150.099 E0.01194
G1 X125.877 Y125.468 E1.09606
G1 X125.877 Y126.003 E0.01684
G1 X150.219 Y150.345 E1.08321
G1 X149.930 Y150.592 E0.01194
G1 X125.877 Y126.538 E1.07037
G1 X125.877 Y127.073 E0.01684
G1 X149.642 Y150.838 E1.05752
G1 X149.353 Y151.085 E0.01194
G1 X125.877 Y127.609 E1.04468
G1 X125.877 Y128.144 E0.01684
G1 X149.064 Y151.331 E1.03183
G1 X148.766 Y151.568 E0.01198
G1 X125.877 Y128.679 E1.01857
G1 X125.877 Y129.214 E0.01684
G1 X148.434 Y151.772 E1.00380
G1 X148.103 Y151.975 E0.01225
G1 X125.877 Y129.749 E0.98904
G1 X125.877 Y130.284 E0.01684
G1 X147.771 Y152.178 E0.97427
G1 X147.439 Y152.382 E0.01225
G1 X125.877 Y130.820 E0.95951
G1 X125.877 Y131.355 E0.01684
G1 X147.107 Y152.585 E0.94474
G1 X146.775 Y152.788 E0.01225
G1 X125.877 Y131.890 E0.92997
G1 X125.877 Y132.425 E0.01684
G1 X146.443 Y152.992 E0.91521
G1 X146.112 Y153.195 E0.01225
G1 X125.877 Y132.960 E0.90044
G1 X125.877 Y133.495 E0.01684
G1 X145.780 Y153.398 E0.88568
M73 Q1 S331
M73 P1 R328
G1 X145.448 Y153.602 E0.01225
G1 X125.877 Y134.031 E0.87091
G1 X125.877 Y134.566 E0.01684
G1 X145.116 Y153.805 E0.85614
G1 X144.784 Y154.008 E0.01225
G1 X125.877 Y135.101 E0.84138
G1 X125.877 Y135.636 E0.01684
G1 X144.413 Y154.172 E0.82485
G1 X144.035 Y154.329 E0.01289
G1 X125.877 Y136.171 E0.80801
G1 X125.877 Y136.707 E0.01684
G1 X143.656 Y154.486 E0.79117
G1 X143.278 Y154.642 E0.01289
G1 X125.877 Y137.242 E0.77433
G1 X125.877 Y137.777 E0.01684
G1 X142.899 Y154.799 E0.75749
G1 X142.521 Y154.956 E0.01289
G1 X125.877 Y138.312 E0.74065
G1 X125.877 Y138.847 E0.01684
G1 X142.142 Y155.113 E0.72381
G1 X141.764 Y155.269 E0.01289
G1 X125.877 Y139.382 E0.70697
G1 X125.877 Y139.918 E0.01684
G1 X141.386 Y155.426 E0.69013
G1 X141.007 Y155.583 E0.01289
G1 X125.877 Y140.453 E0.67329
G1 X125.877 Y140.988 E0.01684
G1 X140.629 Y155.740 E0.65645
G1 X140.245 Y155.891 E0.01298
G1 X125.877 Y141.523 E0.63938
G1 X125.877 Y142.058 E0.01684
G1 X139.814 Y155.995 E0.62018
G1 X139.382 Y156.099 E0.01397
G1 X125.877 Y142.593 E0.60097
G1 X125.877 Y143.129 E0.01684
G1 X138.950 Y156.202 E0.58177
G1 X138.519 Y156.306 E0.01397
G1 X125.877 Y143.664 E0.56257
G1 X125.877 Y144.199 E0.01684
G1 X138.087 Y156.409 E0.54336
G1 X137.656 Y156.513 E0.01397
G1 X125.877 Y144.734 E0.52416
G1 X125.877 Y145.269 E0.01684
G1 X137.224 Y156.617 E0.50495
G1 X136.793 Y156.720 E0.01397
G1 X125.877 Y145.804 E0.48575
G1 X125.877 Y146.340 E0.01684
G1 X136.361 Y156.824 E0.46654
G1 X135.930 Y156.927 E0.01397
G1 X125.877 Y146.875 E0.44734
G1 X125.877 Y147.410 E0.01684
G1 X135.482 Y157.015 E0.42742
G1 X134.986 Y157.054 E0.01566
G1 X125.877 Y147.945 E0.40534
G1 X125.877 Y148.480 E0.01684
G1 X134.490 Y157.093 E0.38326
G1 X133.993 Y157.132 E0.01566
G1 X125.877 Y149.015 E0.36118
G1 X125.877 Y149.551 E0.01684
G1 X133.497 Y157.171 E0.33911
G1 X133.001 Y157.210 E0.01566
G1 X125.877 Y150.086 E0.31703
G1 X125.877 Y150.621 E0.01684
G1 X132.505 Y157.249 E0.29495
G1 X132.009 Y157.288 E0.01566
G1 X125.877 Y151.156 E0.27287
G1 X125.877 Y151.691 E0.01684
G1 X131.513 Y157.327 E0.25080
G1 X131.017 Y157.366 E0.01566
G1 X125.877 Y152.227 E0.22872
G1 X125.877 Y152.762 E0.01684
G1 X130.472 Y157.356 E0.20446
G1 X129.891 Y157.311 E0.01833
G1 X125.877 Y153.297 E0.17861
G1 X125.877 Y153.832 E0.01684
G1 X129.310 Y157.265 E0.15277
G1 X128.729 Y157.219 E0.01833
