; generated by PrusaSlicer 2.2.0+linux-x64 on 2020-07-29 at 05:16:14 UTC

; 

; external perimeters extrusion width = 0.60mm
; perimeters extrusion width = 0.50mm
; infill extrusion width = 0.50mm
; solid infill extrusion width = 0.50mm
; top infill extrusion width = 0.45mm
; first layer extrusion width = 0.42mm

M73 P0 R216
M73 Q0 S217
M201 X1000 Y1000 Z200 E5000 ; sets maximum accelerations, mm/sec^2
M203 X200 Y200 Z12 E120 ; sets maximum feedrates, mm/sec
M204 P1250 R1250 T1250 ; sets acceleration (P, T) and retract acceleration (R), mm/sec^2
M205 X8.00 Y8.00 Z0.40 E4.50 ; sets the jerk limits, mm/sec
M205 S0 T0 ; sets the minimum extruding and travel feed rate, mm/sec
M107
M862.3 P "MK3S" ; printer model check
M862.1 P0.4 ; nozzle diameter check
M115 U3.9.0 ; tell printer latest fw version
G90 ; use absolute coordinates
M83 ; extruder relative mode
M104 S240 ; set extruder temp
M140 S85 ; set bed temp
M190 S85 ; wait for bed temp
M109 S240 ; wait for extruder temp
G28 W ; home all without mesh bed level
G80 ; mesh bed leveling
G1 Y-3.0 F1000.0 ; go outside print area
G92 E0.0
G1 X60.0 E9.0 F1000.0 ; intro line
M73 Q0 S217
M73 P0 R216
G1 X100.0 E12.5 F1000.0 ; intro line
G92 E0.0
M221 S95
G21 ; set units to millimeters
G90 ; use absolute coordinates
M83 ; use relative distances for extrusion
M900 K0.12 ; Filament gcode LA 1.5
M900 K45 ; Filament gcode LA 1.0
;BEFORE_LAYER_CHANGE
G92 E0.0
;0.2


G1 E-1.40000 F2100.00000
G1 Z0.200 F10800.000
;AFTER_LAYER_CHANGE
;0.2
G1 Z0.400
G1 X70.798 Y61.808
G1 Z0.200
G1 E1.40000 F2100.00000
M204 S1000
G1 F1200.000
G1 X74.867 Y58.333 E0.16779
G1 X79.436 Y55.532 E0.16803
G1 X84.384 Y53.483 E0.16791
G1 X89.591 Y52.233 E0.16791
G1 X94.933 Y51.813 E0.16803
G1 X162.549 Y52.154 E2.12008
G1 X167.759 Y52.560 E0.16383
G1 X173.068 Y53.823 E0.17112
G1 X178.016 Y55.872 E0.16790
G1 X182.585 Y58.672 E0.16803
G1 X186.689 Y62.182 E0.16934
G1 X190.135 Y66.222 E0.16647
G1 X192.933 Y70.788 E0.16791
G1 X194.983 Y75.735 E0.16791
G1 X196.230 Y80.927 E0.16743
G1 X196.653 Y86.258 E0.16767
G1 X196.653 Y122.781 E1.14515
G1 X196.197 Y128.299 E0.17360
G1 X194.983 Y133.327 E0.16218
G1 X193.010 Y138.108 E0.16218
G1 X190.140 Y142.834 E0.17336
G1 X186.625 Y146.945 E0.16957
G1 X182.433 Y150.492 E0.17217
G1 X178.019 Y153.189 E0.16218
G1 X173.247 Y155.173 E0.16206
G1 X167.872 Y156.487 E0.17348
G1 X162.518 Y156.908 E0.16838
G1 X94.906 Y156.567 E2.11996
G1 X89.697 Y156.161 E0.16383
G1 X84.387 Y154.898 E0.17112
G1 X79.440 Y152.849 E0.16790
G1 X74.870 Y150.049 E0.16803
G1 X70.766 Y146.539 E0.16934
G1 X67.320 Y142.499 E0.16647
G1 X64.520 Y137.930 E0.16803
G1 X62.472 Y132.982 E0.16791
G1 X61.210 Y127.684 E0.17076
G1 X60.803 Y122.463 E0.16421
G1 X60.803 Y85.883 E1.14694
G1 X61.223 Y80.601 E0.16612
G1 X62.430 Y75.540 E0.16314
G1 X64.519 Y70.453 E0.17241
G1 X67.318 Y65.883 E0.16803
G1 X70.759 Y61.854 E0.16615
G1 F8640.000
G1 X74.867 Y58.333 E-1.24931
G1 X75.165 Y58.150 E-0.08069
G1 E-0.07000 F2100.00000
G1 Z0.400 F10800.000
G1 X133.057 Y76.811
G1 Z0.200
G1 E1.40000 F2100.00000
G1 F1200.000
G1 X133.081 Y76.714 E0.00313
G1 X134.940 Y72.225 E0.15233
G1 X137.478 Y68.083 E0.15233
G1 X140.633 Y64.389 E0.15233
G1 X144.328 Y61.234 E0.15233
G1 X148.470 Y58.695 E0.15233
G1 X152.958 Y56.836 E0.15233
G1 X157.682 Y55.702 E0.15232
G1 X162.561 Y55.323 E0.15344
G1 X167.369 Y55.702 E0.15121
G1 X172.093 Y56.836 E0.15233
G1 X176.582 Y58.695 E0.15233
G1 X180.724 Y61.234 E0.15233
G1 X184.418 Y64.389 E0.15233
G1 X187.573 Y68.083 E0.15233
G1 X190.112 Y72.225 E0.15233
G1 X191.971 Y76.714 E0.15233
G1 X193.105 Y81.438 E0.15233
G1 X193.489 Y86.312 E0.15330
G1 X193.489 Y122.750 E1.14249
G1 X193.105 Y127.624 E0.15330
G1 X191.971 Y132.348 E0.15233
G1 X190.112 Y136.837 E0.15233
G1 X187.573 Y140.979 E0.15233
G1 X184.418 Y144.673 E0.15233
G1 X180.724 Y147.829 E0.15233
G1 X176.582 Y150.367 E0.15233
G1 X172.093 Y152.226 E0.15233
G1 X167.369 Y153.360 E0.15233
G1 X162.526 Y153.742 E0.15233
G1 X157.683 Y153.360 E0.15233
G1 X152.958 Y152.226 E0.15233
G1 X148.470 Y150.367 E0.15233
G1 X144.328 Y147.829 E0.15233
G1 X140.633 Y144.673 E0.15233
G1 X137.478 Y140.979 E0.15233
G1 X134.940 Y136.837 E0.15233
G1 X133.081 Y132.348 E0.15233
G1 X131.946 Y127.624 E0.15233
G1 X131.563 Y122.750 E0.15330
G1 X131.563 Y86.312 E1.14249
G1 X131.946 Y81.438 E0.15330
G1 X133.043 Y76.869 E0.14732
G1 X132.677 Y76.781 F10800.000
G1 F1200.000
G1 X132.721 Y76.597 E0.00594
G1 X134.603 Y72.054 E0.15419
G1 X137.172 Y67.861 E0.15419
G1 X140.366 Y64.121 E0.15419
G1 X144.105 Y60.928 E0.15419
G1 X148.298 Y58.358 E0.15419
G1 X152.842 Y56.476 E0.15419
G1 X157.623 Y55.328 E0.15419
G1 X162.562 Y54.945 E0.15531
G1 X167.428 Y55.328 E0.15306
G1 X172.210 Y56.476 E0.15419
G1 X176.753 Y58.358 E0.15419
G1 X180.946 Y60.928 E0.15419
G1 X184.686 Y64.121 E0.15419
G1 X187.879 Y67.861 E0.15419
G1 X190.449 Y72.054 E0.15419
G1 X192.331 Y76.597 E0.15419
G1 X193.479 Y81.379 E0.15419
G1 X193.866 Y86.297 E0.15470
G1 X193.866 Y122.765 E1.14342
G1 X193.479 Y127.684 E0.15470
G1 X192.331 Y132.465 E0.15419
G1 X190.449 Y137.009 E0.15419
G1 X187.879 Y141.202 E0.15419
G1 X184.686 Y144.941 E0.15419
G1 X180.946 Y148.135 E0.15419
G1 X176.753 Y150.704 E0.15419
G1 X172.210 Y152.586 E0.15419
G1 X167.428 Y153.734 E0.15419
G1 X162.526 Y154.120 E0.15419
G1 X157.623 Y153.734 E0.15419
G1 X152.842 Y152.586 E0.15419
G1 X148.298 Y150.704 E0.15419
G1 X144.105 Y148.135 E0.15419
G1 X140.366 Y144.941 E0.15419
G1 X137.172 Y141.202 E0.15419
G1 X134.603 Y137.009 E0.15419
G1 X132.721 Y132.465 E0.15419
G1 X131.573 Y127.684 E0.15419
G1 X131.186 Y122.765 E0.15470
G1 X131.186 Y86.297 E1.14342
G1 X131.573 Y81.379 E0.15470
G1 X132.663 Y76.840 E0.14636
G1 X132.857 Y76.723 F10800.000
G1 F8640.000
G1 X132.721 Y76.597 E-0.05762
G1 X134.603 Y72.054 E-1.13548
G1 X134.913 Y71.548 E-0.13689
G1 E-0.07000 F2100.00000
G1 Z0.400 F10800.000
G1 X145.006 Y148.112
G1 Z0.200
G1 E1.40000 F2100.00000
G1 F1200.000
G1 X137.713 Y140.819 E0.32360
G1 X136.865 Y139.437 E0.05088
G1 X145.870 Y148.442 E0.39959
G1 X147.248 Y149.287 E0.05071
G1 X136.020 Y138.059 E0.49822
G1 X135.185 Y136.690 E0.05031
G1 X148.617 Y150.122 E0.59601
G1 X149.528 Y150.499 E0.03094
G1 X134.808 Y135.779 E0.65317
G1 X134.430 Y134.868 E0.03094
G1 X150.439 Y150.877 E0.71033
G1 X151.350 Y151.254 E0.03094
G1 X134.053 Y133.957 E0.76749
M73 Q0 S216
G1 X133.676 Y133.046 E0.03094
G1 X152.261 Y151.631 E0.82465
M73 P0 R215
G1 X153.046 Y151.956 E0.02667
G1 X153.143 Y151.980 E0.00313
G1 X133.327 Y132.164 E0.87926
G1 X133.159 Y131.462 E0.02266
G1 X153.845 Y152.148 E0.91790
G1 X154.547 Y152.317 E0.02266
G1 X132.990 Y130.759 E0.95653
G1 X132.821 Y130.057 E0.02266
G1 X155.250 Y152.486 E0.99517
G1 X155.952 Y152.654 E0.02266
G1 X132.653 Y129.355 E1.03381
G1 X132.484 Y128.653 E0.02266
G1 X156.654 Y152.823 E1.07245
G1 X157.356 Y152.991 E0.02266
G1 X132.316 Y127.951 E1.11109
G1 X132.227 Y127.580 E0.01196
G1 X132.205 Y127.306 E0.00861
G1 X158.000 Y153.102 E1.14457
G1 X158.580 Y153.147 E0.01823
G1 X132.160 Y126.727 E1.17230
G1 X132.114 Y126.148 E0.01823
G1 X159.159 Y153.193 E1.20002
G1 X159.738 Y153.239 E0.01823
G1 X132.068 Y125.569 E1.22774
G1 X132.023 Y124.990 E0.01823
G1 X160.317 Y153.284 E1.25547
G1 X160.897 Y153.330 E0.01823
G1 X131.977 Y124.410 E1.28319
G1 X131.932 Y123.831 E0.01823
G1 X161.476 Y153.375 E1.31091
G1 X162.055 Y153.421 E0.01823
G1 X131.886 Y123.252 E1.33864
G1 X131.846 Y122.678 E0.01805
G1 X162.618 Y153.451 E1.36543
G1 X163.113 Y153.412 E0.01557
G1 X131.846 Y122.144 E1.38738
G1 X131.846 Y121.611 E0.01674
G1 X163.608 Y153.373 E1.40933
G1 X164.102 Y153.334 E0.01557
G1 X131.846 Y121.077 E1.43128
G1 X131.846 Y120.543 E0.01674
G1 X164.597 Y153.295 E1.45323
G1 X165.092 Y153.256 E0.01557
G1 X131.846 Y120.010 E1.47518
G1 X131.846 Y119.476 E0.01674
G1 X165.587 Y153.217 E1.49713
G1 X166.081 Y153.178 E0.01557
G1 X131.846 Y118.943 E1.51908
G1 X131.846 Y118.409 E0.01674
G1 X166.576 Y153.139 E1.54103
G1 X167.071 Y153.100 E0.01557
G1 X131.846 Y117.875 E1.56298
G1 X131.846 Y117.342 E0.01674
G1 X167.534 Y153.030 E1.58354
G1 X167.964 Y152.927 E0.01388
G1 X131.846 Y116.808 E1.60263
G1 X131.846 Y116.274 E0.01674
G1 X168.395 Y152.823 E1.62173
M73 Q0 S215
G1 X168.825 Y152.720 E0.01388
G1 X131.846 Y115.741 E1.64082
M73 P0 R214
G1 X131.846 Y115.207 E0.01674
G1 X169.255 Y152.617 E1.65991
G1 X169.686 Y152.513 E0.01388
G1 X131.846 Y114.674 E1.67901
G1 X131.846 Y114.140 E0.01674
G1 X170.116 Y152.410 E1.69810
G1 X170.546 Y152.307 E0.01388
G1 X131.846 Y113.606 E1.71720
G1 X131.846 Y113.073 E0.01674
G1 X170.977 Y152.204 E1.73629
G1 X171.407 Y152.100 E0.01388
G1 X131.846 Y112.539 E1.75538
G1 X131.846 Y112.005 E0.01674
G1 X171.837 Y151.997 E1.77448
G1 X172.005 Y151.956 E0.00543
G1 X172.235 Y151.861 E0.00780
G1 X131.846 Y111.472 E1.79214
G1 X131.846 Y110.938 E0.01674
G1 X172.613 Y151.705 E1.80888
G1 X172.990 Y151.549 E0.01281
G1 X131.846 Y110.405 E1.82562
G1 X131.846 Y109.871 E0.01674
G1 X173.367 Y151.392 E1.84237
G1 X173.745 Y151.236 E0.01281
G1 X131.846 Y109.337 E1.85911
G1 X131.846 Y108.804 E0.01674
G1 X174.122 Y151.080 E1.87585
G1 X174.499 Y150.924 E0.01281
G1 X131.846 Y108.270 E1.89260
G1 X131.846 Y107.736 E0.01674
G1 X174.877 Y150.767 E1.90934
G1 X175.254 Y150.611 E0.01281
G1 X131.846 Y107.203 E1.92608
G1 X131.846 Y106.669 E0.01674
G1 X175.631 Y150.455 E1.94283
G1 X176.009 Y150.298 E0.01281
G1 X131.846 Y106.135 E1.95957
G1 X131.846 Y105.602 E0.01674
G1 X176.386 Y150.142 E1.97631
G1 X176.725 Y149.948 E0.01227
G1 X131.846 Y105.068 E1.99136
M73 Q1 S214
G1 X131.846 Y104.535 E0.01674
G1 X177.056 Y149.745 E2.00604
M73 P1 R213
G1 X177.387 Y149.542 E0.01218
G1 X131.846 Y104.001 E2.02072
G1 X131.846 Y103.467 E0.01674
G1 X177.718 Y149.339 E2.03540
G1 X178.048 Y149.137 E0.01218
G1 X131.846 Y102.934 E2.05008
G1 X131.846 Y102.400 E0.01674
G1 X178.379 Y148.934 E2.06476
G1 X178.710 Y148.731 E0.01218
G1 X131.846 Y101.866 E2.07944
G1 X131.846 Y101.333 E0.01674
G1 X179.041 Y148.528 E2.09413
G1 X179.372 Y148.326 E0.01218
G1 X131.846 Y100.799 E2.10881
G1 X131.846 Y100.266 E0.01674
G1 X179.703 Y148.123 E2.12349
G1 X180.034 Y147.920 E0.01218
G1 X131.846 Y99.732 E2.13817
G1 X131.846 Y99.198 E0.01674
G1 X180.365 Y147.717 E2.15285
G1 X180.557 Y147.599 E0.00709
G1 X180.677 Y147.496 E0.00496
G1 X131.846 Y98.665 E2.16673
G1 X131.846 Y98.131 E0.01674
G1 X180.965 Y147.251 E2.17950
G1 X181.253 Y147.005 E0.01188
G1 X131.846 Y97.597 E2.19227
G1 X131.846 Y97.064 E0.01674
G1 X181.541 Y146.759 E2.20504
G1 X181.829 Y146.513 E0.01188
G1 X131.846 Y96.530 E2.21781
G1 X131.846 Y95.997 E0.01674
G1 X182.116 Y146.267 E2.23059
G1 X182.404 Y146.022 E0.01188
G1 X131.846 Y95.463 E2.24336
M73 Q1 S213
G1 X131.846 Y94.929 E0.01674
G1 X182.692 Y145.776 E2.25613
M73 P1 R212
G1 X182.980 Y145.530 E0.01188
G1 X131.846 Y94.396 E2.26890
G1 X131.846 Y93.862 E0.01674
G1 X183.268 Y145.284 E2.28167
G1 X183.556 Y145.038 E0.01188
G1 X131.846 Y93.328 E2.29444
G1 X131.846 Y92.795 E0.01674
G1 X183.843 Y144.792 E2.30721
G1 X184.131 Y144.547 E0.01188
G1 X131.846 Y92.261 E2.31998
G1 X131.846 Y91.728 E0.01674
G1 X184.390 Y144.271 E2.33144
G1 X184.635 Y143.984 E0.01188
G1 X131.846 Y91.194 E2.34235
G1 X131.846 Y90.660 E0.01674
G1 X184.881 Y143.696 E2.35326
G1 X185.127 Y143.408 E0.01188
G1 X131.846 Y90.127 E2.36417
G1 X131.846 Y89.593 E0.01674
G1 X185.373 Y143.120 E2.37507
G1 X185.619 Y142.832 E0.01188
G1 X131.846 Y89.059 E2.38598
G1 X131.846 Y88.526 E0.01674
G1 X185.864 Y142.545 E2.39689
G1 X186.110 Y142.257 E0.01188
G1 X131.846 Y87.992 E2.40780
G1 X131.846 Y87.459 E0.01674
G1 X186.356 Y141.969 E2.41870
G1 X186.602 Y141.681 E0.01188
G1 X131.846 Y86.925 E2.42961
M73 Q2 S212
G1 X131.846 Y86.391 E0.01674
G1 X186.848 Y141.393 E2.44052
M73 P2 R211
G1 X187.094 Y141.106 E0.01188
G1 X131.880 Y85.892 E2.44992
G1 X131.919 Y85.397 E0.01557
G1 X187.339 Y140.818 E2.45910
G1 X187.543 Y140.488 E0.01217
G1 X131.957 Y84.902 E2.46640
G1 X131.996 Y84.408 E0.01557
G1 X187.746 Y140.157 E2.47367
G1 X187.948 Y139.826 E0.01218
G1 X132.035 Y83.913 E2.48094
G1 X132.074 Y83.418 E0.01557
G1 X188.151 Y139.495 E2.48821
G1 X188.354 Y139.164 E0.01218
G1 X132.113 Y82.923 E2.49548
G1 X132.152 Y82.429 E0.01557
G1 X188.557 Y138.833 E2.50275
G1 X188.760 Y138.502 E0.01218
G1 X132.191 Y81.934 E2.51002
G1 X132.236 Y81.445 E0.01541
G1 X188.962 Y138.172 E2.51704
G1 X189.165 Y137.841 E0.01218
G1 X132.339 Y81.015 E2.52145
G1 X132.442 Y80.584 E0.01388
G1 X189.368 Y137.510 E2.52586
G1 X189.571 Y137.179 E0.01218
G1 X132.546 Y80.154 E2.53028
G1 X132.649 Y79.724 E0.01388
G1 X189.773 Y136.848 E2.53469
M73 Q2 S211
G1 X189.859 Y136.708 E0.00515
G1 X189.949 Y136.490 E0.00739
G1 X132.752 Y79.293 E2.53791
M73 P2 R210
G1 X132.855 Y78.863 E0.01388
G1 X190.106 Y136.113 E2.54026
G1 X190.262 Y135.736 E0.01281
G1 X132.959 Y78.433 E2.54261
G1 X133.062 Y78.002 E0.01388
G1 X190.418 Y135.358 E2.54496
G1 X190.574 Y134.981 E0.01281
G1 X133.165 Y77.572 E2.54731
G1 X133.269 Y77.142 E0.01388
G1 X190.731 Y134.604 E2.54966
G1 X190.887 Y134.226 E0.01281
G1 X133.383 Y76.723 E2.55152
G1 X133.539 Y76.345 E0.01281
G1 X191.043 Y133.849 E2.55152
G1 X191.200 Y133.472 E0.01281
G1 X133.696 Y75.968 E2.55152
G1 X133.852 Y75.591 E0.01281
G1 X191.356 Y133.094 E2.55152
G1 X191.512 Y132.717 E0.01281
G1 X134.008 Y75.213 E2.55152
G1 X134.165 Y74.836 E0.01281
G1 X191.668 Y132.340 E2.55152
G1 X191.783 Y131.920 E0.01363
G1 X134.321 Y74.459 E2.54966
G1 X134.477 Y74.081 E0.01281
G1 X191.886 Y131.490 E2.54731
G1 X191.989 Y131.060 E0.01388
G1 X134.633 Y73.704 E2.54496
M73 Q3 S210
G1 X134.790 Y73.327 E0.01281
G1 X192.093 Y130.630 E2.54261
M73 P3 R209
G1 X192.196 Y130.199 E0.01388
G1 X134.946 Y72.949 E2.54026
G1 X135.102 Y72.572 E0.01281
G1 X192.299 Y129.769 E2.53791
G1 X192.403 Y129.339 E0.01388
G1 X135.278 Y72.214 E2.53469
G1 X135.481 Y71.883 E0.01218
G1 X192.506 Y128.908 E2.53028
G1 X192.609 Y128.478 E0.01388
G1 X135.684 Y71.552 E2.52586
G1 X135.887 Y71.222 E0.01218
G1 X192.713 Y128.048 E2.52145
G1 X192.816 Y127.617 E0.01388
G1 X136.089 Y70.891 E2.51704
G1 X136.292 Y70.560 E0.01218
G1 X192.860 Y127.128 E2.51002
G1 X192.899 Y126.634 E0.01557
G1 X136.495 Y70.229 E2.50275
G1 X136.698 Y69.898 E0.01218
G1 X192.938 Y126.139 E2.49548
G1 X192.977 Y125.644 E0.01557
G1 X136.900 Y69.567 E2.48821
G1 X137.103 Y69.236 E0.01218
G1 X193.016 Y125.149 E2.48094
G1 X193.055 Y124.655 E0.01557
G1 X137.306 Y68.905 E2.47367
G1 X137.509 Y68.575 E0.01218
G1 X193.094 Y124.160 E2.46640
M73 Q3 S209
G1 X193.133 Y123.665 E0.01557
G1 X137.712 Y68.245 E2.45910
M73 P3 R208
G1 X137.958 Y67.957 E0.01188
G1 X193.172 Y123.171 E2.44992
G1 X193.206 Y122.671 E0.01571
G1 X138.204 Y67.669 E2.44052
G1 X138.450 Y67.381 E0.01188
G1 X193.206 Y122.137 E2.42961
G1 X193.206 Y121.604 E0.01674
G1 X138.695 Y67.093 E2.41870
G1 X138.941 Y66.805 E0.01188
G1 X193.206 Y121.070 E2.40779
G1 X193.206 Y120.536 E0.01674
G1 X139.187 Y66.518 E2.39689
G1 X139.433 Y66.230 E0.01188
G1 X193.206 Y120.003 E2.38598
G1 X193.206 Y119.469 E0.01674
G1 X139.679 Y65.942 E2.37507
G1 X139.925 Y65.654 E0.01188
G1 X193.206 Y118.936 E2.36417
G1 X193.206 Y118.402 E0.01674
G1 X140.170 Y65.366 E2.35326
G1 X140.416 Y65.079 E0.01188
G1 X193.206 Y117.868 E2.34235
G1 X193.206 Y117.335 E0.01674
G1 X140.662 Y64.791 E2.33144
G1 X140.920 Y64.516 E0.01184
G1 X193.206 Y116.801 E2.31998
G1 X193.206 Y116.267 E0.01674
G1 X141.208 Y64.270 E2.30721
G1 X141.496 Y64.024 E0.01188
G1 X193.206 Y115.734 E2.29444
M73 Q4 S208
G1 X193.206 Y115.200 E0.01674
G1 X141.784 Y63.778 E2.28167
M73 P4 R207
G1 X142.072 Y63.532 E0.01188
G1 X193.206 Y114.667 E2.26890
G1 X193.206 Y114.133 E0.01674
G1 X142.359 Y63.287 E2.25612
G1 X142.647 Y63.041 E0.01188
G1 X193.206 Y113.599 E2.24335
G1 X193.206 Y113.066 E0.01674
G1 X142.935 Y62.795 E2.23058
G1 X143.223 Y62.549 E0.01188
G1 X193.206 Y112.532 E2.21781
G1 X193.206 Y111.998 E0.01674
G1 X143.511 Y62.303 E2.20504
G1 X143.799 Y62.057 E0.01188
G1 X193.206 Y111.465 E2.19227
G1 X193.206 Y110.931 E0.01674
G1 X144.086 Y61.812 E2.17950
G1 X144.374 Y61.566 E0.01188
G1 X193.206 Y110.398 E2.16673
G1 X193.206 Y109.864 E0.01674
G1 X144.687 Y61.345 E2.15285
G1 X145.018 Y61.142 E0.01218
G1 X193.206 Y109.330 E2.13817
G1 X193.206 Y108.797 E0.01674
