; generated by PrusaSlicer 2.2.0+linux-x64 on 2020-07-29 at 04:28:20 UTC

; 

; external perimeters extrusion width = 0.60mm
; perimeters extrusion width = 0.50mm
; infill extrusion width = 0.50mm
; solid infill extrusion width = 0.50mm
; top infill extrusion width = 0.45mm
; first layer extrusion width = 0.42mm

M73 P0 R185
M73 Q0 S186
M201 X1000 Y1000 Z200 E5000 ; sets maximum accelerations, mm/sec^2
M203 X200 Y200 Z12 E120 ; sets maximum feedrates, mm/sec
M204 P1250 R1250 T1250 ; sets acceleration (P, T) and retract acceleration (R), mm/sec^2
M205 X8.00 Y8.00 Z0.40 E4.50 ; sets the jerk limits, mm/sec
M205 S0 T0 ; sets the minimum extruding and travel feed rate, mm/sec
M107
M862.3 P "MK3S" ; printer model check
M862.1 P0.4 ; nozzle diameter check
M115 U3.9.0 ; tell printer latest fw version
G90 ; use absolute coordinates
M83 ; extruder relative mode
M104 S240 ; set extruder temp
M140 S85 ; set bed temp
M190 S85 ; wait for bed temp
M109 S240 ; wait for extruder temp
G28 W ; home all without mesh bed level
G80 ; mesh bed leveling
G1 Y-3.0 F1000.0 ; go outside print area
G92 E0.0
G1 X60.0 E9.0 F1000.0 ; intro line
M73 Q0 S186
M73 P0 R185
G1 X100.0 E12.5 F1000.0 ; intro line
G92 E0.0
M221 S95
G21 ; set units to millimeters
G90 ; use absolute coordinates
M83 ; use relative distances for extrusion
M900 K0.12 ; Filament gcode LA 1.5
M900 K45 ; Filament gcode LA 1.0
;BEFORE_LAYER_CHANGE
G92 E0.0
;0.2


G1 E-1.40000 F2100.00000
G1 Z0.200 F10800.000
;AFTER_LAYER_CHANGE
;0.2
G1 Z0.400
G1 X59.277 Y54.480
G1 Z0.200
G1 E1.40000 F2100.00000
M204 S1000
G1 F1200.000
G1 X60.047 Y53.956 E0.02919
G1 X60.955 Y53.767 E0.02907
G1 X159.805 Y53.606 E3.09941
G1 X194.983 Y53.792 E1.10300
G1 X195.672 Y53.928 E0.02201
G1 X196.288 Y54.257 E0.02190
G1 X196.784 Y54.754 E0.02201
G1 X197.113 Y55.374 E0.02201
G1 X197.249 Y56.159 E0.02496
G1 X197.249 Y103.840 E1.49501
G1 X196.668 Y154.195 E1.57896
G1 X196.482 Y155.062 E0.02778
G1 X195.991 Y155.799 E0.02778
G1 X195.243 Y156.316 E0.02849
G1 X194.353 Y156.514 E0.02860
G1 X159.810 Y156.753 E1.08308
G1 X60.963 Y156.913 E3.09929
G1 X60.069 Y156.734 E0.02860
G1 X59.310 Y156.234 E0.02849
G1 X58.783 Y155.457 E0.02942
G1 X58.598 Y154.536 E0.02946
G1 X58.598 Y56.129 E3.08550
G1 X58.777 Y55.238 E0.02849
G1 X59.244 Y54.530 E0.02661
G1 F8640.000
G1 X60.047 Y53.956 E-0.22784
G1 X60.955 Y53.767 E-0.21410
G1 X64.801 Y53.761 E-0.88806
G1 E-0.07000 F2100.00000
G1 Z0.400 F10800.000
G1 X177.035 Y128.301
G1 Z0.200
G1 E1.40000 F2100.00000
G1 F1200.000
G1 X177.319 Y127.969 E0.01372
G1 X177.652 Y127.684 E0.01372
G1 X178.025 Y127.456 E0.01373
G1 X178.432 Y127.287 E0.01381
G1 X178.881 Y127.184 E0.01443
G1 X179.292 Y127.152 E0.01292
G1 X179.728 Y127.186 E0.01373
G1 X180.154 Y127.288 E0.01372
G1 X180.558 Y127.456 E0.01372
G1 X180.931 Y127.684 E0.01373
G1 X181.264 Y127.969 E0.01372
G1 X181.548 Y128.301 E0.01372
G1 X181.777 Y128.675 E0.01373
G1 X181.944 Y129.079 E0.01372
G1 X182.047 Y129.505 E0.01372
G1 X182.081 Y129.941 E0.01373
G1 X182.047 Y130.378 E0.01373
G1 X181.944 Y130.803 E0.01372
G1 X181.777 Y131.208 E0.01372
G1 X181.548 Y131.581 E0.01373
G1 X181.264 Y131.914 E0.01372
G1 X180.931 Y132.198 E0.01372
G1 X180.558 Y132.427 E0.01373
G1 X180.154 Y132.594 E0.01372
G1 X179.728 Y132.696 E0.01372
G1 X179.292 Y132.731 E0.01373
G1 X178.855 Y132.696 E0.01373
G1 X178.430 Y132.594 E0.01372
G1 X178.025 Y132.427 E0.01372
G1 X177.652 Y132.198 E0.01373
G1 X177.319 Y131.914 E0.01372
G1 X177.035 Y131.581 E0.01372
G1 X176.806 Y131.208 E0.01373
G1 X176.639 Y130.803 E0.01372
G1 X176.536 Y130.378 E0.01372
G1 X176.502 Y129.941 E0.01373
G1 X176.536 Y129.505 E0.01373
G1 X176.639 Y129.079 E0.01372
G1 X176.806 Y128.675 E0.01372
G1 X177.003 Y128.353 E0.01185
G1 X177.325 Y128.550 F10800.000
G1 F1200.000
G1 X177.587 Y128.236 E0.01280
G1 X177.874 Y127.990 E0.01186
G1 X178.197 Y127.793 E0.01186
G1 X178.547 Y127.648 E0.01190
G1 X178.938 Y127.558 E0.01257
G1 X179.292 Y127.530 E0.01112
G1 X179.669 Y127.560 E0.01186
G1 X180.037 Y127.648 E0.01186
G1 X180.386 Y127.793 E0.01186
G1 X180.709 Y127.990 E0.01186
G1 X180.997 Y128.236 E0.01186
G1 X181.242 Y128.524 E0.01186
G1 X181.440 Y128.846 E0.01186
G1 X181.585 Y129.196 E0.01186
G1 X181.673 Y129.564 E0.01186
G1 X181.703 Y129.941 E0.01187
G1 X181.673 Y130.318 E0.01187
G1 X181.585 Y130.686 E0.01186
G1 X181.440 Y131.036 E0.01186
G1 X181.242 Y131.358 E0.01186
G1 X180.997 Y131.646 E0.01186
G1 X180.709 Y131.892 E0.01186
G1 X180.386 Y132.090 E0.01186
G1 X180.037 Y132.234 E0.01186
G1 X179.669 Y132.323 E0.01186
G1 X179.292 Y132.352 E0.01186
G1 X178.914 Y132.323 E0.01186
G1 X178.546 Y132.234 E0.01186
G1 X178.197 Y132.090 E0.01186
G1 X177.874 Y131.892 E0.01186
G1 X177.587 Y131.646 E0.01186
G1 X177.341 Y131.358 E0.01186
G1 X177.143 Y131.036 E0.01186
G1 X176.998 Y130.686 E0.01186
G1 X176.910 Y130.318 E0.01186
G1 X176.880 Y129.941 E0.01186
G1 X176.910 Y129.564 E0.01187
G1 X176.998 Y129.196 E0.01186
G1 X177.143 Y128.846 E0.01186
G1 X177.294 Y128.601 E0.00903
G1 X177.159 Y128.186 F10800.000
G1 F8640.000
G1 X177.587 Y128.236 E-0.10800
G1 X177.874 Y127.990 E-0.08735
G1 X178.197 Y127.793 E-0.08738
G1 X178.547 Y127.648 E-0.08761
G1 X178.938 Y127.558 E-0.09256
G1 X179.292 Y127.530 E-0.08187
G1 X179.669 Y127.560 E-0.08738
G1 X180.037 Y127.648 E-0.08736
G1 X180.386 Y127.793 E-0.08737
G1 X180.709 Y127.990 E-0.08738
G1 X180.997 Y128.236 E-0.08735
G1 X181.242 Y128.524 E-0.08735
G1 X181.440 Y128.846 E-0.08738
G1 X181.585 Y129.196 E-0.08737
G1 X181.672 Y129.559 E-0.08629
G1 E-0.07000 F2100.00000
G1 Z0.400 F10800.000
G1 X165.079 Y107.278
G1 Z0.200
G1 E1.40000 F2100.00000
G1 F1200.000
G1 X193.504 Y107.278 E0.89127
G1 X193.504 Y153.350 E1.44456
G1 X165.079 Y153.350 E0.89127
G1 X165.079 Y107.338 E1.44268
G1 X164.702 Y106.901 F10800.000
G1 F1200.000
G1 X193.882 Y106.901 E0.91492
G1 X193.882 Y153.727 E1.46820
G1 X164.702 Y153.727 E0.91492
G1 X164.702 Y106.961 E1.46632
G1 X165.079 Y107.034 F10800.000
G1 F8640.000
G1 X170.462 Y106.949 E-1.33000
G1 E-0.07000 F2100.00000
G1 Z0.400 F10800.000
G1 X165.192 Y112.186
G1 Z0.200
G1 E1.40000 F2100.00000
G1 F1200.000
G1 X179.955 Y126.950 E0.65935
G1 X179.772 Y126.906 E0.00594
G1 X179.340 Y126.872 E0.01369
G1 X165.361 Y112.893 E0.62430
G1 X165.361 Y113.430 E0.01696
G1 X178.835 Y126.904 E0.60176
G1 X178.399 Y127.005 E0.01415
G1 X165.361 Y113.967 E0.58226
G1 X165.361 Y114.504 E0.01696
G1 X178.012 Y127.155 E0.56499
G1 X177.896 Y127.203 E0.00396
G1 X177.665 Y127.345 E0.00857
G1 X165.361 Y115.041 E0.54948
G1 X165.361 Y115.578 E0.01696
G1 X177.352 Y127.569 E0.53550
G1 X177.070 Y127.824 E0.01201
G1 X165.361 Y116.116 E0.52293
G1 X165.361 Y116.653 E0.01696
G1 X176.823 Y128.114 E0.51188
G1 X176.616 Y128.444 E0.01230
G1 X165.361 Y117.190 E0.50262
G1 X165.361 Y117.727 E0.01696
G1 X176.444 Y128.810 E0.49496
G1 X176.369 Y128.991 E0.00622
G1 X176.315 Y129.217 E0.00733
G1 X165.361 Y118.264 E0.48918
G1 X165.361 Y118.801 E0.01696
G1 X176.239 Y129.679 E0.48580
G1 X176.218 Y129.941 E0.00831
G1 X176.240 Y130.217 E0.00873
G1 X165.361 Y119.338 E0.48585
G1 X165.361 Y119.875 E0.01696
G1 X176.366 Y130.880 E0.49148
M73 Q0 S185
G1 X176.553 Y131.336 E0.01557
G1 X176.805 Y131.748 E0.01523
G1 X177.118 Y132.114 E0.01523
G1 X177.485 Y132.427 E0.01523
G1 X177.896 Y132.679 E0.01523
G1 X178.352 Y132.866 E0.01557
G1 X193.222 Y147.736 E0.66407
M73 P0 R184
G1 X193.222 Y147.198 E0.01696
G1 X179.016 Y132.993 E0.63444
G1 X179.292 Y133.014 E0.00873
G1 X179.554 Y132.994 E0.00831
G1 X193.222 Y146.661 E0.61041
G1 X193.222 Y146.124 E0.01696
G1 X180.015 Y132.918 E0.58980
G1 X180.241 Y132.864 E0.00733
G1 X180.423 Y132.789 E0.00622
G1 X193.222 Y145.587 E0.57159
G1 X193.222 Y145.050 E0.01696
G1 X180.789 Y132.617 E0.55527
G1 X181.118 Y132.410 E0.01230
G1 X193.222 Y144.513 E0.54053
G1 X193.222 Y143.976 E0.01696
G1 X181.408 Y132.162 E0.52760
G1 X181.664 Y131.881 E0.01201
G1 X193.222 Y143.439 E0.51618
G1 X193.222 Y142.902 E0.01696
G1 X181.888 Y131.568 E0.50617
G1 X182.030 Y131.336 E0.00857
G1 X182.078 Y131.221 E0.00396
G1 X193.222 Y142.365 E0.49770
G1 X193.222 Y141.827 E0.01696
G1 X182.228 Y130.834 E0.49098
G1 X182.329 Y130.397 E0.01414
G1 X193.222 Y141.290 E0.48648
G1 X193.222 Y140.753 E0.01696
G1 X182.361 Y129.892 E0.48505
G1 X182.327 Y129.460 E0.01369
G1 X182.283 Y129.277 E0.00594
G1 X193.222 Y140.216 E0.48853
G1 X193.222 Y139.679 E0.01696
G1 X165.361 Y111.819 E1.24426
G1 X165.361 Y111.282 E0.01696
G1 X193.222 Y139.142 E1.24426
G1 X193.222 Y138.605 E0.01696
G1 X165.361 Y110.745 E1.24426
G1 X165.361 Y110.207 E0.01696
G1 X193.222 Y138.068 E1.24426
G1 X193.222 Y137.531 E0.01696
G1 X165.361 Y109.670 E1.24426
G1 X165.361 Y109.133 E0.01696
G1 X193.222 Y136.993 E1.24426
G1 X193.222 Y136.456 E0.01696
G1 X165.361 Y108.596 E1.24426
G1 X165.361 Y108.059 E0.01696
G1 X193.222 Y135.919 E1.24426
G1 X193.222 Y135.382 E0.01696
G1 X165.401 Y107.561 E1.24251
G1 X165.938 Y107.561 E0.01696
G1 X193.222 Y134.845 E1.21852
G1 X193.222 Y134.308 E0.01696
G1 X166.475 Y107.561 E1.19453
G1 X167.012 Y107.561 E0.01696
G1 X193.222 Y133.771 E1.17055
G1 X193.222 Y133.234 E0.01696
G1 X167.549 Y107.561 E1.14656
G1 X168.086 Y107.561 E0.01696
G1 X193.222 Y132.697 E1.12257
G1 X193.222 Y132.159 E0.01696
G1 X168.623 Y107.561 E1.09858
G1 X169.160 Y107.561 E0.01696
G1 X193.222 Y131.622 E1.07460
G1 X193.222 Y131.085 E0.01696
G1 X169.697 Y107.561 E1.05061
G1 X170.234 Y107.561 E0.01696
G1 X193.222 Y130.548 E1.02662
G1 X193.222 Y130.011 E0.01696
G1 X170.772 Y107.561 E1.00263
G1 X171.309 Y107.561 E0.01696
G1 X193.222 Y129.474 E0.97865
G1 X193.222 Y128.937 E0.01696
G1 X171.846 Y107.561 E0.95466
G1 X172.383 Y107.561 E0.01696
G1 X193.222 Y128.400 E0.93067
G1 X193.222 Y127.863 E0.01696
G1 X172.920 Y107.561 E0.90668
G1 X173.457 Y107.561 E0.01696
G1 X193.222 Y127.326 E0.88270
G1 X193.222 Y126.788 E0.01696
G1 X173.994 Y107.561 E0.85871
G1 X174.531 Y107.561 E0.01696
G1 X193.222 Y126.251 E0.83472
G1 X193.222 Y125.714 E0.01696
G1 X175.068 Y107.561 E0.81073
M73 Q1 S184
M73 P1 R183
G1 X175.606 Y107.561 E0.01696
G1 X193.222 Y125.177 E0.78675
G1 X193.222 Y124.640 E0.01696
G1 X176.143 Y107.561 E0.76276
G1 X176.680 Y107.561 E0.01696
G1 X193.222 Y124.103 E0.73877
G1 X193.222 Y123.566 E0.01696
G1 X177.217 Y107.561 E0.71478
G1 X177.754 Y107.561 E0.01696
G1 X193.222 Y123.029 E0.69079
G1 X193.222 Y122.492 E0.01696
G1 X178.291 Y107.561 E0.66681
G1 X178.828 Y107.561 E0.01696
G1 X193.222 Y121.954 E0.64282
G1 X193.222 Y121.417 E0.01696
G1 X179.365 Y107.561 E0.61883
G1 X179.902 Y107.561 E0.01696
G1 X193.222 Y120.880 E0.59484
G1 X193.222 Y120.343 E0.01696
G1 X180.440 Y107.561 E0.57086
G1 X180.977 Y107.561 E0.01696
G1 X193.222 Y119.806 E0.54687
G1 X193.222 Y119.269 E0.01696
G1 X181.514 Y107.561 E0.52288
G1 X182.051 Y107.561 E0.01696
G1 X193.222 Y118.732 E0.49889
G1 X193.222 Y118.195 E0.01696
G1 X182.588 Y107.561 E0.47491
G1 X183.125 Y107.561 E0.01696
G1 X193.222 Y117.658 E0.45092
G1 X193.222 Y117.120 E0.01696
G1 X183.662 Y107.561 E0.42693
G1 X184.199 Y107.561 E0.01696
G1 X193.222 Y116.583 E0.40294
G1 X193.222 Y116.046 E0.01696
G1 X184.736 Y107.561 E0.37896
G1 X185.273 Y107.561 E0.01696
G1 X193.222 Y115.509 E0.35497
G1 X193.222 Y114.972 E0.01696
G1 X185.811 Y107.561 E0.33098
G1 X186.348 Y107.561 E0.01696
G1 X193.222 Y114.435 E0.30699
G1 X193.222 Y113.898 E0.01696
G1 X186.885 Y107.561 E0.28301
G1 X187.422 Y107.561 E0.01696
G1 X193.222 Y113.361 E0.25902
G1 X193.222 Y112.824 E0.01696
G1 X187.959 Y107.561 E0.23503
G1 X188.496 Y107.561 E0.01696
G1 X193.222 Y112.287 E0.21104
G1 X193.222 Y111.749 E0.01696
G1 X189.033 Y107.561 E0.18706
G1 X189.570 Y107.561 E0.01696
G1 X193.222 Y111.212 E0.16307
G1 X193.222 Y110.675 E0.01696
G1 X190.107 Y107.561 E0.13908
G1 X190.645 Y107.561 E0.01696
G1 X193.222 Y110.138 E0.11509
G1 X193.222 Y109.601 E0.01696
G1 X191.182 Y107.561 E0.09111
G1 X191.719 Y107.561 E0.01696
G1 X193.222 Y109.064 E0.06712
G1 X193.222 Y108.527 E0.01696
G1 X192.256 Y107.561 E0.04313
G1 X192.793 Y107.561 E0.01696
G1 X193.391 Y108.159 E0.02672
G1 F8640.000
G1 X192.793 Y107.561 E-0.19539
G1 X192.256 Y107.561 E-0.12402
G1 X193.222 Y108.527 E-0.31537
G1 X193.222 Y109.064 E-0.12402
G1 X191.719 Y107.561 E-0.49076
G1 X191.370 Y107.561 E-0.08046
G1 E-0.07000 F2100.00000
G1 Z0.400 F10800.000
G1 X193.391 Y148.442
G1 Z0.200
G1 E1.40000 F2100.00000
G1 F1200.000
G1 X165.361 Y120.412 E1.25183
G1 X165.361 Y120.950 E0.01696
G1 X193.222 Y148.810 E1.24426
G1 X193.222 Y149.347 E0.01696
G1 X165.361 Y121.487 E1.24426
G1 X165.361 Y122.024 E0.01696
G1 X193.222 Y149.884 E1.24426
G1 X193.222 Y150.421 E0.01696
G1 X165.361 Y122.561 E1.24426
G1 X165.361 Y123.098 E0.01696
G1 X193.222 Y150.958 E1.24426
G1 X193.222 Y151.495 E0.01696
G1 X165.361 Y123.635 E1.24426
G1 X165.361 Y124.172 E0.01696
G1 X193.222 Y152.032 E1.24426
G1 X193.222 Y152.570 E0.01696
G1 X165.361 Y124.709 E1.24426
G1 X165.361 Y125.246 E0.01696
G1 X193.182 Y153.067 E1.24251
G1 X192.645 Y153.067 E0.01696
G1 X165.361 Y125.784 E1.21852
G1 X165.361 Y126.321 E0.01696
G1 X192.108 Y153.067 E1.19453
G1 X191.571 Y153.067 E0.01696
G1 X165.361 Y126.858 E1.17054
G1 X165.361 Y127.395 E0.01696
G1 X191.034 Y153.067 E1.14656
G1 X190.497 Y153.067 E0.01696
G1 X165.361 Y127.932 E1.12257
G1 X165.361 Y128.469 E0.01696
G1 X189.960 Y153.067 E1.09858
G1 X189.423 Y153.067 E0.01696
G1 X165.361 Y129.006 E1.07459
G1 X165.361 Y129.543 E0.01696
G1 X188.886 Y153.067 E1.05061
G1 X188.348 Y153.067 E0.01696
G1 X165.361 Y130.080 E1.02662
G1 X165.361 Y130.617 E0.01696
G1 X187.811 Y153.067 E1.00263
M73 Q1 S183
M73 P1 R182
G1 X187.274 Y153.067 E0.01696
G1 X165.361 Y131.155 E0.97864
G1 X165.361 Y131.692 E0.01696
G1 X186.737 Y153.067 E0.95466
G1 X186.200 Y153.067 E0.01696
G1 X165.361 Y132.229 E0.93067
G1 X165.361 Y132.766 E0.01696
G1 X185.663 Y153.067 E0.90668
G1 X185.126 Y153.067 E0.01696
G1 X165.361 Y133.303 E0.88269
G1 X165.361 Y133.840 E0.01696
G1 X184.589 Y153.067 E0.85871
G1 X184.052 Y153.067 E0.01696
G1 X165.361 Y134.377 E0.83472
G1 X165.361 Y134.914 E0.01696
G1 X183.515 Y153.067 E0.81073
G1 X182.977 Y153.067 E0.01696
G1 X165.361 Y135.451 E0.78674
G1 X165.361 Y135.989 E0.01696
G1 X182.440 Y153.067 E0.76276
G1 X181.903 Y153.067 E0.01696
G1 X165.361 Y136.526 E0.73877
G1 X165.361 Y137.063 E0.01696
G1 X181.366 Y153.067 E0.71478
G1 X180.829 Y153.067 E0.01696
G1 X165.361 Y137.600 E0.69079
G1 X165.361 Y138.137 E0.01696
G1 X180.292 Y153.067 E0.66680
G1 X179.755 Y153.067 E0.01696
G1 X165.361 Y138.674 E0.64282
G1 X165.361 Y139.211 E0.01696
G1 X179.218 Y153.067 E0.61883
G1 X178.681 Y153.067 E0.01696
G1 X165.361 Y139.748 E0.59484
G1 X165.361 Y140.285 E0.01696
G1 X178.143 Y153.067 E0.57085
G1 X177.606 Y153.067 E0.01696
G1 X165.361 Y140.823 E0.54687
G1 X165.361 Y141.360 E0.01696
G1 X177.069 Y153.067 E0.52288
G1 X176.532 Y153.067 E0.01696
G1 X165.361 Y141.897 E0.49889
G1 X165.361 Y142.434 E0.01696
G1 X175.995 Y153.067 E0.47490
G1 X175.458 Y153.067 E0.01696
G1 X165.361 Y142.971 E0.45092
G1 X165.361 Y143.508 E0.01696
G1 X174.921 Y153.067 E0.42693
G1 X174.384 Y153.067 E0.01696
G1 X165.361 Y144.045 E0.40294
G1 X165.361 Y144.582 E0.01696
G1 X173.847 Y153.067 E0.37895
G1 X173.309 Y153.067 E0.01696
G1 X165.361 Y145.119 E0.35497
G1 X165.361 Y145.656 E0.01696
G1 X172.772 Y153.067 E0.33098
G1 X172.235 Y153.067 E0.01696
G1 X165.361 Y146.194 E0.30699
G1 X165.361 Y146.731 E0.01696
G1 X171.698 Y153.067 E0.28300
G1 X171.161 Y153.067 E0.01696
G1 X165.361 Y147.268 E0.25902
G1 X165.361 Y147.805 E0.01696
G1 X170.624 Y153.067 E0.23503
G1 X170.087 Y153.067 E0.01696
G1 X165.361 Y148.342 E0.21104
G1 X165.361 Y148.879 E0.01696
G1 X169.550 Y153.067 E0.18705
G1 X169.013 Y153.067 E0.01696
G1 X165.361 Y149.416 E0.16307
G1 X165.361 Y149.953 E0.01696
G1 X168.476 Y153.067 E0.13908
G1 X167.938 Y153.067 E0.01696
G1 X165.361 Y150.490 E0.11509
G1 X165.361 Y151.028 E0.01696
G1 X167.401 Y153.067 E0.09110
G1 X166.864 Y153.067 E0.01696
G1 X165.361 Y151.565 E0.06712
G1 X165.361 Y152.102 E0.01696
G1 X166.327 Y153.067 E0.04313
G1 X165.790 Y153.067 E0.01696
G1 X165.192 Y152.469 E0.02672
G1 F8640.000
G1 X165.790 Y153.067 E-0.19537
G1 X166.327 Y153.067 E-0.12402
G1 X165.361 Y152.102 E-0.31535
G1 X165.361 Y151.565 E-0.12402
G1 X166.864 Y153.067 E-0.49074
